X:1
T:Title
%%score { ( 1 3 ) | ( 2 4 ) }
L:1/8
Q:1/4=100
M:4/4
K:Ab
V:1 treble nm="Grand Piano"
V:3 treble 
V:2 bass 
V:4 bass 
V:1
 [CE][CE][CE][CE] [DF]2 [CE][CA] | A2 G2 G4 | EEEE [DE]2 d2 | c6 z2 | eeed c2 [CA][CE] | %5
w: Mrs.~C.~H.~Morris * * * * * *|||||
 [EG]2 F2 F4 | EEEE G2 B2 | [CA]6 z2 | [DB]4 B2 z2 | [Ec]3 _c [E=c]4 | AAAA ddcA | G2 A2 B4 | %12
w: |||||||
 e=ded e2 c2 | c_c=c_c =c2 A2 | AAGF EEAA | [Ac]2 [DGB]2 [CEA]4 |] %16
w: ||||
V:2
 [A,,A,][A,,A,][A,,A,][A,,A,] [A,,A,]2 [A,,A,][A,,A,] | [E,CE]2 [E,B,D]2 [E,B,D]4 | %2
 [E,G,D][E,G,D][D,G,B,][C,A,C] [B,,G,]2 [E,G,E]2 | [A,E]6 z2 | %4
 [A,CE][A,CE][A,CE][G,B,E] [A,E]2 [A,,A,][C,A,] | [D,A,]2 [D,A,D]2 [D,A,D]4 | %6
 [E,A,C][E,A,C][E,G,D][E,G,D] [E,B,D]2 [E,G,D]2 | [A,,E,A,]6 z2 | z4 D2 z2 | A,A,A,=D A,A, .A,2 | %10
 [A,DF][A,DF][A,DF][A,DF] [A,F][A,F][K:bass][A,E][A,CE] | [E,B,E]2 [E,CE]2 [E,DE]4 | %12
 [A,CA][A,_CA][A,=CA][A,_CA] [A,=CA]2 [A,EA]2 | [A,EA][A,=DA][A,EA][A,DA] [A,EA]2 [CE_G]2 | %14
 [DF][DF][K:bass][D,DE][D,A,D] [E,A,C][E,A,C][F,A,C][F,A,C] | .A,2 z2 z4 |] %16
V:3
 x8 | x8 | x8 | x8 | x8 | x8 | x8 | x8 | z G,G,=A z G,A,B, | x8 | x8 | x8 | x8 | x8 | x8 | x8 |] %16
V:4
 x8 | x8 | x8 | x8 | x8 | x8 | x8 | x8 | [E,G,]E,E,[E,_G,C] [E,=G,]E,F,G, | x8 | x6[K:bass] x2 | %11
 x8 | x8 | x8 | x2[K:bass] x6 | E,-[E,E] E,2 A,,4 |] %16

